X: 842
T: The jug of punch
C: anon.
O: Ireland
B: Francis O'Neill: "The Dance Music of Ireland" (1907) no. 758
R: Reel
Z: Transcribed by Frank Nordberg - http://www.musicaviva.com
F: http://www.musicaviva.com/abc/tunes/ireland/oneill-1001/oneill-1001-075
8.abc
M: C|
L: 1/8
K: D
A,DDC DEFG|ABGB ABGA|EA,A,B, CDEF|G2(AG) FDEC|A,DDE (FD)(DE)|F2(ED) CDE2|
d2(ed) cAGE|FDEC D2D2||
Adde f2(fd)|e2(ed) cAAB|AGAB cBcd|eaag (ed)d2|Adde f2(fd)|e2(ed) cAAB|=
c2(BA) GEAG|FDEC D2D2|]
W:
W:
W: From Musica Viva - http://www.musicaviva.com
W: the Internet center for free sheet music downloads.


